X: 852
T: Gurubetti Güneş Dünya Karardı
C: Hacı Ârif Bey
O: Turkey
F: http://compmusic.upf.edu/node/140
N: kurdilihicazkar--sarki--kapali_curcuna--gurub_etti--haci_arif_bey
N: makam= kurdilihicazkar
N: form= sarki
N: usul= kapali_curcuna = 10/8
M: 10/8
L: 1/16
K: C _B _e _A 
Q: 1/4=240
%%MIDI tuningsystem comma53
z4 g2g4d8c2  | f2g2 =a2{b}a2 g2g2 f2g6  | \
w:  Gu rû bet  |  ti   | 
g4 g2=a4a2 bc'a4g2  | 
w:  *  gü neş dün  | 
g14f4_1/4e2  | f4 f2_1/4e2 d2d2 c2=a4g2  | \
w:  ya  |  ka rar  | 
g8-g2f2 _1/4e2d6  | z4 g2g4d8c2  | 
w:  dı SAZ  |  Gu rû bet  | 
f2g2 =a2{b}a2 g2g2 f2g6  | g4 f2g4g2 f2_1/4e2 d2e2  | \
w:  ti   |  *  gü neş  dün  | 
f14_1/4e4d2  | =a2g2 g4 f2(3g2f2_1/4e2e4d2  | 
w:  ya  |  ka rar  | 
d8-d2_1/4e2 f2g6  | z4 f2g4g8f2  | f4 a2g2 f2e2 d2e6  | \
w:  dı SAZ  |  Gül_ i  ba  |  ğı  | 
e4 d2e4e2 d2c2 B2c2  | 
w:  *  e mel sol  | 
d16 c4  | g4 d4 c2(3c2B2c2d4c2  | c8-c2_1/4e2 f2g6  | \
w:  du  |  sa *  rar  |  dı SAZ  | 
z4 f2g4g8f2  | f4 a2g2 f2e2 d2e6  | 
w:  Gül_ i  ba  |  ğı  | 
e4 d2e4e2 d2c2 B2c2  | d14c4B2  | e2d2 d2c2 B2(3c2B2A2A4G2  | 
w:  *  e mel sol  |  du  |  sa *  rar  | 
G8-G2b4c'6  | z4 b2c'4c'2 b2_1/4a2 gfg2  | \
w:  dı SAZ  |  Fe lek de  | 
_1/4a3g a2b2 c'2c'2 b2a2 g2f2  | 
w:  böy *  *  le *  ma  | 
f8-f2g8-g2  | _1/4a3g a2b2 c'2c'2 b2a2 g2f2  | \
w:  tem  |   | 
d'4 c'2c'2 b2(3c'2b2_1/4a2a4g2  | 
w:  ler *  a *  rar  | 
_1/4a16-_1/4a4  | z4 b2c'4c'2 b2_1/4a2 gfg2  | \
w:  dı  |  Fe lek de  | 
_1/4a3g a2b2 c'2c'2 b2a2 g2f2  | 
w:  böy *  *  le *  ma  | 
f8-f2g8-g2  | _1/4a3g a2b2 c'2c'2 b2a2 g2f2  | \
w:  tem  |   | 
d'4 c'2c'2 b2(3c'2b2_1/4a2a4g2  | 
w:  ler *  a *  rar  | 
g8-g2e2 f2g6  | z4 f2g4g8f2  | f4 a2g2 f2e2 d2e6  | \
w:  dı SAZ  |  Gül_ i  ba  |  ğı  | 
e4 d2e4e2 d2c2 B2c2  | 
w:  *  e mel sol  | 
d16 c4  | g4 d4 c2(3c2B2c2d4c2  | c8-c2_1/4e2 f2g6  | \
w:  du  |  sa *  rar  |  dı SAZ  | 
z4 f2g4g8f2  | f4 a2g2 f2e2 d2e6  | 
w:  Gül_ i  ba  |  ğı  | 
e4 d2e4e2 d2c2 B2c2  | d14c4B2  | e2d2 d2c2 B2(3c2B2A2A4G2  | 
w:  *  e mel sol  |  du  |  sa *  rar  | 
G8-G2|
w:  dı  | 


